X:447
T:
R:vals
S:Uppt. såsom samlaren hört den spelas av Karl Kolmodin, Kvie i Lojsta.
O:Gotland, Lojsta
M:3/4
L:1/8
K:G
B2|d3 ^c d2|b2 d2 d2|d3 efg|a6|a4 g2|f4 e2|d4 b2|g2 B2 c2|d2 ^c2 d2|b2 d2 d2|
d3 efg|a6|b4 d2|e4 d2|f3 ecA|G4::D2|c3 dcB|A4 c2|B4 g2|d4 B2|A2 ffff|f2 e2 f2|
B2 gggg|g2 f2 g2|c3 dcB|A4 c2|B4 g2|d4 B2|A2 ffff|f2 e2 d2|B2 gggg|g4:|
K:C
|:g2|e2 G3 c|e2 a3 g|e2 c3 e|g6|d2 B3 d|g2 b3 a|a2 g3 B|c4:|
K:G
|:dg|b4 d2|a4 c2|g4 B2|B2 ABcd|e4 d2|b4 d2|a4 g2|f2 e2 f2|g4:|

